source/images/icons/icon-editorial/rosace.svg

<?xml version="1.0" encoding="UTF-8"?>
<svg width="80px" height="80px" viewBox="0 0 80 80" version="1.1" xmlns="http://www.w3.org/2000/svg" xmlns:xlink="http://www.w3.org/1999/xlink">
    <!-- Generator: Sketch 55.2 (78181) - https://sketchapp.com -->
    <title>Illustrative Icons/Rosace</title>
    <desc>Created with Sketch.</desc>
    <g id="Illustrative-Icons/Rosace" stroke="none" stroke-width="1" fill="none" fill-rule="evenodd">
        <path d="M68.6050833,40.3500833 C73.1760679,37.4989654 74.9532661,31.7194609 72.7739985,26.7926397 C70.5947309,21.8658186 65.1229542,19.2927338 59.9384166,20.7567499 C61.3754364,15.581135 58.799255,10.1346611 53.8866903,7.96239883 C48.9741256,5.79013653 43.2116781,7.54939398 40.3500833,12.0950832 C37.4989654,7.5240986 31.7194609,5.74690039 26.7926397,7.92616798 C21.8658186,10.1054356 19.2927338,15.5772123 20.7567499,20.7617499 C15.581135,19.3247301 10.1346611,21.9009115 7.96239883,26.8134762 C5.79013653,31.7260409 7.54939398,37.4884884 12.0950832,40.3500833 C7.5240986,43.2012011 5.74690039,48.9807057 7.92616798,53.9075268 C10.1054356,58.8343479 15.5772123,61.4074327 20.7617499,59.9434166 C19.3108179,65.1241795 21.8855397,70.5841893 26.8057982,72.7605541 C31.7260567,74.9369189 37.4979563,73.1688477 40.3550833,68.6100833 C43.2062011,73.1810679 48.9857057,74.9582661 53.9125268,72.7789985 C58.8393479,70.5997309 61.4124327,65.1279542 59.9484166,59.9434166 C65.1291795,61.3943486 70.5891893,58.8196268 72.7655541,53.8993683 C74.9419189,48.9791098 73.1738477,43.2072103 68.6150833,40.3500833 L68.6050833,40.3500833 Z M42.0167452,25.6567499 L42.0167452,17.8500832 C42.0127835,14.2845946 44.5195643,11.2091757 48.0126163,10.4941146 C51.5056683,9.77905354 55.0192932,11.622038 56.4167119,14.9022736 C57.8141305,18.1825093 56.7090088,21.9931336 53.7734166,24.0167499 C52.2914782,23.4532628 50.6295956,23.630885 49.300223,24.4948454 C47.9708504,25.3588059 47.1336392,26.805347 47.0467499,28.3884166 C47.0467499,28.4884166 47.0167452,28.5817499 47.0167452,28.6817499 C47.0167452,31.4431737 49.2553262,33.6817499 52.0167452,33.6817499 C52.1167499,33.6817499 52.2117499,33.6584166 52.3100833,33.6517499 C53.8974071,33.5752713 55.3512552,32.7405865 56.2176218,31.4083497 C57.0839884,30.0761129 57.2572931,28.4086783 56.6834166,26.9267499 C58.7070329,23.9911577 62.5176572,22.886036 65.7978929,24.2834547 C69.0781286,25.6808733 70.921113,29.1944982 70.2060519,32.6875502 C69.4909908,36.1806022 66.4155719,38.687383 62.8500833,38.6834213 L45.3500833,38.6834213 C43.5091341,38.6834213 42.0167452,37.1910324 42.0167452,35.3500832 L42.0167452,25.6567499 Z M10.3500832,31.1834166 C10.355359,27.9048735 12.4895443,25.0097277 15.6197744,24.0347755 C18.7500045,23.0598233 22.1507164,24.2310512 24.0167499,26.9267499 C23.4532628,28.4086883 23.630885,30.070571 24.4948454,31.3999436 C25.3588059,32.7293162 26.805347,33.5665273 28.3884166,33.6534166 C28.4867499,33.6534166 28.5817499,33.6834166 28.6817499,33.6834166 C31.4431737,33.6834166 33.6817499,31.4448403 33.6817499,28.6834166 C33.6817499,28.5834166 33.6584166,28.4884166 33.6517499,28.3900832 C33.5752713,26.8027594 32.7405865,25.3489113 31.4083497,24.4825447 C30.0761129,23.6161781 28.4086783,23.4428734 26.9267499,24.0167499 C23.9911577,21.9931336 22.886036,18.1825093 24.2834547,14.9022736 C25.6808733,11.622038 29.1944982,9.77905354 32.6875502,10.4941146 C36.1806022,11.2091757 38.687383,14.2845946 38.6834213,17.8500832 L38.6834213,35.3500832 C38.6834213,37.1910324 37.1910324,38.6834166 35.3500832,38.6834166 L17.8500832,38.6834166 C13.7079476,38.6834166 10.3500832,35.3255522 10.3500832,31.1834166 L10.3500832,31.1834166 Z M38.6834213,55.0434166 L38.6834213,62.8500833 C38.687383,66.4155719 36.1806022,69.4909908 32.6875502,70.2060519 C29.1944982,70.921113 25.6808733,69.0781286 24.2834547,65.7978929 C22.886036,62.5176572 23.9911577,58.7070329 26.9267499,56.6834166 C28.4086883,57.2469037 30.070571,57.0692815 31.3999436,56.2053211 C32.7293162,55.3413606 33.5665273,53.8948196 33.6534166,52.3117499 C33.6534166,52.2117499 33.6834166,52.1184166 33.6834166,52.0184166 C33.6834166,49.2569929 31.4448403,47.0184166 28.6834166,47.0184166 C28.5834166,47.0184166 28.4884166,47.0417499 28.3900832,47.0484166 C26.8027594,47.1248952 25.3489113,47.95958 24.4825447,49.2918168 C23.6161781,50.6240536 23.4428734,52.2914882 24.0167499,53.7734166 C21.9931336,56.7090088 18.1825093,57.8141305 14.9022736,56.4167119 C11.622038,55.0192932 9.77905354,51.5056683 10.4941146,48.0126163 C11.2091757,44.5195643 14.2845946,42.0127835 17.8500832,42.0167452 L35.3500832,42.0167452 C37.1910324,42.0167452 38.6834213,43.5091341 38.6834213,45.3500833 L38.6834213,55.0434166 Z M62.8500833,57.0167499 C60.3859757,57.0165975 58.0797991,55.8036733 56.6834166,53.7734166 C57.2469037,52.2914782 57.0692815,50.6295956 56.2053211,49.300223 C55.3413606,47.9708504 53.8948196,47.1336392 52.3117499,47.0467499 C52.2134166,47.0467499 52.1184166,47.0167499 52.0184166,47.0167499 C49.2569929,47.0167499 47.0184166,49.2553262 47.0184166,52.0167499 C47.0184166,52.1167499 47.0417499,52.2117499 47.0484166,52.3100833 C47.1248952,53.8974071 47.95958,55.3512552 49.2918168,56.2176218 C50.6240536,57.0839884 52.2914882,57.2572931 53.7734166,56.6834166 C56.7090088,58.7070329 57.8141305,62.5176572 56.4167119,65.7978929 C55.0192932,69.0781286 51.5056683,70.921113 48.0126163,70.2060519 C44.5195643,69.4909908 42.0127835,66.4155719 42.0167452,62.8500833 L42.0167452,45.3500833 C42.0167452,43.5091341 43.5091341,42.0167499 45.3500833,42.0167499 L62.8500833,42.0167499 C66.9922189,42.0167499 70.3500833,45.3746143 70.3500833,49.5167499 C70.3500833,53.6588856 66.9922189,57.0167499 62.8500833,57.0167499 Z" id="Shape-color" fill="#ADB5BD"></path>
    </g>
</svg>

<svg width="80" height="80">
    <title>
        Illustrative Icons/Rosace
    </title>
    <path d="M68.605 40.35a10.82 10.82 0 0 0-8.667-19.593 10.823 10.823 0 0 0-19.588-8.662 10.82 10.82 0 0 0-19.593 8.667 10.823 10.823 0 0 0-8.662 19.588 10.82 10.82 0 0 0 8.667 19.593 10.823 10.823 0 0 0 19.593 8.667 10.82 10.82 0 0 0 19.593-8.667 10.823 10.823 0 0 0 8.667-19.593h-.01zM42.017 25.657V17.85a7.5 7.5 0 1 1 11.756 6.167 4.968 4.968 0 0 0-6.726 4.371c0 .1-.03.194-.03.294a5 5 0 0 0 5 5c.1 0 .195-.024.293-.03a4.945 4.945 0 0 0 4.373-6.725 7.5 7.5 0 1 1 6.167 11.756h-17.5a3.333 3.333 0 0 1-3.333-3.333v-9.693zM10.35 31.183a7.5 7.5 0 0 1 13.667-4.256 4.968 4.968 0 0 0 4.371 6.726c.099 0 .194.03.294.03a5 5 0 0 0 5-5c0-.1-.024-.195-.03-.293a4.945 4.945 0 0 0-6.725-4.373 7.5 7.5 0 1 1 11.756-6.167v17.5a3.333 3.333 0 0 1-3.333 3.333h-17.5a7.5 7.5 0 0 1-7.5-7.5zm28.333 23.86v7.807a7.5 7.5 0 1 1-11.756-6.167 4.968 4.968 0 0 0 6.726-4.371c0-.1.03-.194.03-.294a5 5 0 0 0-5-5c-.1 0-.195.024-.293.03a4.945 4.945 0 0 0-4.373 6.725 7.5 7.5 0 1 1-6.167-11.756h17.5a3.333 3.333 0 0 1 3.333 3.333v9.693zm24.167 1.974a7.485 7.485 0 0 1-6.167-3.244 4.968 4.968 0 0 0-4.371-6.726c-.099 0-.194-.03-.294-.03a5 5 0 0 0-5 5c0 .1.024.195.03.293a4.945 4.945 0 0 0 6.725 4.373 7.5 7.5 0 1 1-11.756 6.167v-17.5a3.333 3.333 0 0 1 3.333-3.333h17.5a7.5 7.5 0 0 1 0 15z" fill="#ADB5BD" fill-rule="evenodd"/>
</svg>
